PR6/img/search.svg

<svg fill="#4c4f78" height="16" viewBox="0 0 15 16" width="15" xmlns="http://www.w3.org/2000/svg"><path d="m10.2857 6.71429c0 2.20535-1.79463 4.00001-3.99999 4.00001-2.20535 0-4-1.79466-4-4.00001 0-2.20536 1.79465-4.00001 4-4.00001 2.20536 0 3.99999 1.79465 3.99999 4.00001zm4.5714 7.42861c0-.3036-.125-.5983-.3303-.8036l-3.0625-3.0625c.7232-1.04466 1.1071-2.29466 1.1071-3.56251 0-3.47322-2.81247-6.285719-6.28569-6.285719-3.47321 0-6.28571 2.812499-6.28571 6.285719 0 3.47321 2.8125 6.28571 6.28571 6.28571 1.26786 0 2.51786-.3839 3.56251-1.1071l3.06248 3.0535c.2054.2143.5.3393.8036.3393.625 0 1.1428-.5178 1.1428-1.1428z" fill="#4c4f78"/></svg>

<svg width="15" height="16" viewBox="0 0 15 16" xmlns="http://www.w3.org/2000/svg" fill="#4C4F78">
<path  d="M10.2857 6.71429C10.2857 8.91964 8.49107 10.7143 6.28571 10.7143C4.08036 10.7143 2.28571 8.91964 2.28571 6.71429C2.28571 4.50893 4.08036 2.71428 6.28571 2.71428C8.49107 2.71428 10.2857 4.50893 10.2857 6.71429ZM14.8571 14.1429C14.8571 13.8393 14.7321 13.5446 14.5268 13.3393L11.4643 10.2768C12.1875 9.23214 12.5714 7.98214 12.5714 6.71429C12.5714 3.24107 9.75893 0.428571 6.28571 0.428571C2.8125 0.428571 0 3.24107 0 6.71429C0 10.1875 2.8125 13 6.28571 13C7.55357 13 8.80357 12.6161 9.84822 11.8929L12.9107 14.9464C13.1161 15.1607 13.4107 15.2857 13.7143 15.2857C14.3393 15.2857 14.8571 14.7679 14.8571 14.1429Z" fill="#4C4F78"/>
</svg>
